svg/Outline/chevron-down.svg

<svg viewBox="0 0 24 24" xmlns="http://www.w3.org/2000/svg" width="24" height="24"><path d="M5.24 9.12a.9.9 0 0 1 1.27 0l4.97 4.97.48.45H12l.06-.04c.1-.08.21-.2.42-.4l4.97-4.98.07-.06a.9.9 0 0 1 1.27 1.27l-.07.07-4.96 4.96q-.3.3-.53.5-.25.24-.66.4-.59.18-1.17 0l-.2-.09a2 2 0 0 1-.45-.3l-.53-.5-4.97-4.97a.9.9 0 0 1 0-1.28"/></svg>

<svg viewBox="0 0 24 24" xmlns="http://www.w3.org/2000/svg" width="24" height="24"><path d="M5.24 9.12A.9 .9 0 0 1 6.51 9.12L12 14.54L12.06 14.5C12.16 14.42 12.27 14.3 12.48 14.1L17.52 9.06A.9 .9 0 0 1 18.79 10.33L13.76 15.36Q13.46 15.66 13.23 15.86Q12.98 16.1 12.57 16.26Q11.98 16.44 11.4 16.26L11.2 16.17A2 2 0 0 1 10.75 15.87L5.25 10.4A.9 .9 0 0 1 5.25 9.12"/></svg>
